public/google.svg

<?xml version="1.0" encoding="UTF-8"?> <svg xmlns="http://www.w3.org/2000/svg" width="131" height="44" viewBox="0 0 131 44" fill="none"><g clip-path="url(#clip0)"><path d="M56.0184 23.0118C56.0184 29.2403 51.2438 33.83 45.3842 33.83C39.5246 33.83 34.75 29.2403 34.75 23.0118C34.75 16.7394 39.5246 12.1936 45.3842 12.1936C51.2438 12.1936 56.0184 16.7394 56.0184 23.0118ZM51.3632 23.0118C51.3632 19.1196 48.596 16.4565 45.3842 16.4565C42.1724 16.4565 39.4051 19.1196 39.4051 23.0118C39.4051 26.865 42.1724 29.5671 45.3842 29.5671C48.596 29.5671 51.3632 26.8601 51.3632 23.0118Z" fill="black"></path><path d="M78.9598 23.0118C78.9598 29.2403 74.1852 33.83 68.3256 33.83C62.466 33.83 57.6914 29.2403 57.6914 23.0118C57.6914 16.7443 62.466 12.1936 68.3256 12.1936C74.1852 12.1936 78.9598 16.7394 78.9598 23.0118ZM74.3046 23.0118C74.3046 19.1196 71.5374 16.4565 68.3256 16.4565C65.1138 16.4565 62.3466 19.1196 62.3466 23.0118C62.3466 26.865 65.1138 29.5671 68.3256 29.5671C71.5374 29.5671 74.3046 26.8601 74.3046 23.0118Z" fill="black"></path><path d="M100.945 12.8472V32.2692C100.945 40.2584 96.3282 43.5215 90.8701 43.5215C85.7322 43.5215 82.64 40.0146 81.4738 37.1466L85.5267 35.4249C86.2484 37.1856 88.0168 39.2634 90.8653 39.2634C94.3591 39.2634 96.5241 37.0637 96.5241 32.9228V31.3668H96.3616C95.3197 32.6789 93.3124 33.8251 90.7793 33.8251C85.4789 33.8251 80.623 29.1135 80.623 23.0508C80.623 16.9442 85.4789 12.1936 90.7793 12.1936C93.3076 12.1936 95.315 13.3398 96.3616 14.6128H96.5241V12.8521H100.945V12.8472ZM96.8539 23.0508C96.8539 19.2415 94.3639 16.4565 91.1951 16.4565C87.9833 16.4565 85.2925 19.2415 85.2925 23.0508C85.2925 26.8211 87.9833 29.5671 91.1951 29.5671C94.3639 29.5671 96.8539 26.8211 96.8539 23.0508Z" fill="black"></path><path d="M108.234 1.4632V33.1666H103.693V1.4632H108.234Z" fill="black"></path><path d="M125.926 26.5723L129.539 29.0305C128.373 30.7913 125.563 33.8251 120.707 33.8251C114.685 33.8251 110.188 29.0744 110.188 23.0069C110.188 16.5735 114.723 12.1887 120.186 12.1887C125.687 12.1887 128.378 16.6565 129.257 19.0708L129.74 20.2999L115.569 26.2894C116.654 28.4599 118.341 29.5671 120.707 29.5671C123.078 29.5671 124.722 28.377 125.926 26.5723ZM114.804 22.6801L124.277 18.666C123.756 17.3149 122.189 16.3736 120.344 16.3736C117.978 16.3736 114.685 18.505 114.804 22.6801Z" fill="black"></path><path d="M17.5636 20.1976V15.608H32.7191C32.8673 16.4079 32.9438 17.3541 32.9438 18.3784C32.9438 21.8218 32.0214 26.0798 29.0486 29.1136C26.157 32.1864 22.4625 33.8252 17.5684 33.8252C8.49708 33.8252 0.869141 26.2847 0.869141 17.0273C0.869141 7.76991 8.49708 0.22937 17.5684 0.22937C22.5868 0.22937 26.1618 2.23888 28.8478 4.85807L25.6743 8.09669C23.7482 6.25302 21.1386 4.81905 17.5636 4.81905C10.9394 4.81905 5.75848 10.2672 5.75848 17.0273C5.75848 23.7874 10.9394 29.2356 17.5636 29.2356C21.8603 29.2356 24.3074 27.4748 25.875 25.875C27.1464 24.5776 27.9827 22.7242 28.3125 20.1928L17.5636 20.1976Z" fill="black"></path></g><defs><clipPath id="clip0"><rect width="130" height="43.8527" fill="white" transform="translate(0.697266)"></rect></clipPath></defs></svg>

<svg xmlns="http://www.w3.org/2000/svg" fill="none" viewBox="0 0 131 44"><g fill="#000" clip-path="url(#a)"><path d="M56.018 23.012c0 6.228-4.774 10.818-10.634 10.818S34.75 29.24 34.75 23.012c0-6.273 4.775-10.818 10.634-10.818 5.86 0 10.634 4.545 10.634 10.818zm-4.655 0c0-3.892-2.767-6.556-5.979-6.556s-5.979 2.664-5.979 6.556c0 3.853 2.767 6.555 5.98 6.555 3.211 0 5.978-2.707 5.978-6.555zM78.96 23.012c0 6.228-4.775 10.818-10.634 10.818-5.86 0-10.635-4.59-10.635-10.818 0-6.268 4.775-10.818 10.635-10.818 5.86 0 10.634 4.545 10.634 10.818zm-4.655 0c0-3.892-2.768-6.556-5.98-6.556-3.211 0-5.978 2.664-5.978 6.556 0 3.853 2.767 6.555 5.979 6.555 3.211 0 5.979-2.707 5.979-6.555zM100.945 12.847V32.27c0 7.99-4.617 11.253-10.075 11.253-5.138 0-8.23-3.507-9.396-6.375l4.053-1.722c.721 1.76 2.49 3.838 5.338 3.838 3.494 0 5.66-2.2 5.66-6.34v-1.556h-.163c-1.042 1.312-3.05 2.458-5.583 2.458-5.3 0-10.156-4.712-10.156-10.774 0-6.107 4.856-10.857 10.156-10.857 2.529 0 4.536 1.146 5.583 2.419h.162v-1.76h4.421v-.006zm-4.091 10.204c0-3.81-2.49-6.595-5.659-6.595-3.212 0-5.902 2.785-5.902 6.595 0 3.77 2.69 6.516 5.902 6.516 3.169 0 5.659-2.746 5.659-6.516zM108.234 1.463v31.704h-4.541V1.463h4.541zM125.926 26.572l3.613 2.459c-1.166 1.76-3.976 4.794-8.832 4.794-6.022 0-10.519-4.75-10.519-10.818 0-6.434 4.535-10.818 9.998-10.818 5.501 0 8.192 4.468 9.071 6.882l.483 1.229-14.171 5.99c1.085 2.17 2.772 3.277 5.138 3.277 2.371 0 4.015-1.19 5.219-2.995zm-11.122-3.892l9.473-4.014c-.521-1.351-2.088-2.292-3.933-2.292-2.366 0-5.659 2.131-5.54 6.306zM17.564 20.198v-4.59h15.155c.148.8.225 1.746.225 2.77 0 3.444-.923 7.702-3.895 10.736-2.892 3.072-6.587 4.711-11.48 4.711-9.072 0-16.7-7.54-16.7-16.798C.87 7.77 8.497.23 17.57.23c5.018 0 8.593 2.01 11.279 4.63l-3.174 3.238c-1.926-1.844-4.535-3.278-8.11-3.278-6.625 0-11.806 5.448-11.806 12.208s5.181 12.209 11.806 12.209c4.296 0 6.743-1.761 8.311-3.361 1.271-1.297 2.108-3.15 2.438-5.682l-10.75.005z"/></g><defs><clipPath id="a"><path fill="#fff" d="M0 0h130v43.853H0z" transform="translate(.697)"/></clipPath></defs></svg>
